X: 34598
T: River John Sunset
R: waltz
M: 3/4
K: Dmajor
A FE|"D"D3E FG|A2 F2 D2|"G"G3F GB|d4 dB|
"D"A4 AG|"F#m"F2 G2 F2|"Em"E6-|E3A FE|
"D"D3E FG|A2 F2 D2|"G"G3F GB|d4 dB|
"D"A4 AF|"A7"E2 F2 E2|"D"D6-|D3B AG||
"D"F3A de|"D7"f2 g2 a2|"G"g3a gd|B4 dB|
"D"A2 d3d|d2 e2 f2|"A7"e6-|e3B AG|
"D"F3A de|"D7"f2 g2 a2|"G"g3a gd|B4 dB|
"D"A2 d3d|"A7"e2 f2 e2|"D"d6-|d6|

